X:032
U: ~ = !turn!
%%topmargin 3cm
T:Coleman's
B:Traditional Irish Fiddle Tunes. Randy Miller and Jack Perron.
Z:Transcribed by Ralph Palmer
S:Sean Ryan
R:Jig
L:1/8
M:6/8
K:D
g | fed Bcd | A2 d F2 A | BAF d2 F | E3 E2 g |
ged Bcd | A2 d F2 A | BAF d2 F | D3 D2 g ::
~f3 a2 f | b2 f a2 f | ~f3 a2 f | e3 e2 g |
[1 ~f3 a2 f | b2 f a2 f | ~f3 a2 f | d3 d2 g :|
[2 fga efg | fed Bcd | ABA GFE | DFA d2 |]
